app/assets/images/payment_icons/jcb.svg

<svg xmlns="http://www.w3.org/2000/svg" width="38" height="24" viewBox="0 0 38 24" fill="none" aria-labelledby="pi-jcb" role="img"><title id="pi-jcb">JCB</title><rect width="38" height="24" fill="white"/><path fill-rule="evenodd" clip-rule="evenodd" d="M11.5 5H15V16.5C15 17.163 14.7366 17.7989 14.2678 18.2678C13.7989 18.7366 13.163 19 12.5 19H9V7.5C9 6.83696 9.26339 6.20107 9.73223 5.73223C10.2011 5.26339 10.837 5 11.5 5Z" fill="#006EBC"/><path fill-rule="evenodd" clip-rule="evenodd" d="M18.5 5H22V16.5C22 17.163 21.7366 17.7989 21.2678 18.2678C20.7989 18.7366 20.163 19 19.5 19H16V7.5C16 6.83696 16.2634 6.20107 16.7322 5.73223C17.2011 5.26339 17.837 5 18.5 5Z" fill="#F00036"/><path fill-rule="evenodd" clip-rule="evenodd" d="M25.5 5H29V16.5C29 17.163 28.7366 17.7989 28.2678 18.2678C27.7989 18.7366 27.163 19 26.5 19H23V7.5C23 6.83696 23.2634 6.20107 23.7322 5.73223C24.2011 5.26339 24.837 5 25.5 5Z" fill="#2AB419"/><path d="M10.755 14.5C9.695 14.5 8.633 14.196 8.099 13.513L8.879 12.837C8.947 13.97 12.424 14.077 12.424 12.647V9.5H14.226V12.647C14.226 13.375 13.652 13.969 12.653 14.279C12.187 14.423 11.288 14.5 10.755 14.5ZM18.871 14.5C18.197 14.5 17.483 14.393 16.906 14.134C15.958 13.709 15.594 12.928 15.606 11.935C15.618 10.921 16.042 10.153 17.074 9.77C18.393 9.28 20.417 9.509 21 10.04V11.012C20.428 10.491 19.042 10.114 18.081 10.552C17.587 10.778 17.344 11.469 17.337 12C17.331 12.56 17.582 13.252 18.081 13.497C19.034 13.964 20.471 13.537 21 13.056V14.066C20.642 14.321 19.747 14.5 18.871 14.5ZM27.55 11.913C27.92 11.678 28.132 11.346 28.132 10.908C28.132 10.47 28.016 10.221 27.784 9.969C27.578 9.762 27.204 9.5 26.546 9.5H23V14.5H26.546C27.242 14.5 27.643 14.27 27.861 14.085C28.144 13.835 28.287 13.555 28.287 13.125C28.287 12.694 28.132 12.217 27.55 11.913ZM25.644 11.632H24.216V10.188H25.711C26.667 10.188 26.655 11.632 25.644 11.632ZM25.932 13.789H24.216V12.276H25.932C26.918 12.276 27.015 13.789 25.932 13.789Z" fill="white"/></svg>

<svg xmlns="http://www.w3.org/2000/svg" width="38" height="24" fill="none" aria-labelledby="pi-jcb" role="img" viewBox="0 0 38 24"><title id="pi-jcb">JCB</title><path fill="#fff" d="M0 0h38v24H0z"/><path fill="#006EBC" fill-rule="evenodd" d="M11.5 5H15v11.5a2.5 2.5 0 0 1-2.5 2.5H9V7.5A2.5 2.5 0 0 1 11.5 5" clip-rule="evenodd"/><path fill="#F00036" fill-rule="evenodd" d="M18.5 5H22v11.5a2.5 2.5 0 0 1-2.5 2.5H16V7.5A2.5 2.5 0 0 1 18.5 5" clip-rule="evenodd"/><path fill="#2AB419" fill-rule="evenodd" d="M25.5 5H29v11.5a2.5 2.5 0 0 1-2.5 2.5H23V7.5A2.5 2.5 0 0 1 25.5 5" clip-rule="evenodd"/><path fill="#fff" d="M10.755 14.5c-1.06 0-2.122-.304-2.656-.987l.78-.676c.068 1.133 3.545 1.24 3.545-.19V9.5h1.802v3.147c0 .728-.574 1.322-1.573 1.632-.466.144-1.365.221-1.898.221m8.116 0c-.674 0-1.388-.107-1.965-.366-.948-.425-1.312-1.206-1.3-2.199.012-1.014.436-1.782 1.468-2.165 1.319-.49 3.343-.261 3.926.27v.972c-.572-.521-1.958-.898-2.919-.46-.494.226-.737.917-.744 1.448-.006.56.245 1.252.744 1.497.953.467 2.39.04 2.919-.441v1.01c-.358.255-1.253.434-2.129.434m8.679-2.587c.37-.235.582-.567.582-1.005s-.116-.687-.348-.939c-.206-.207-.58-.469-1.238-.469H23v5h3.546c.696 0 1.097-.23 1.315-.415.283-.25.426-.53.426-.96 0-.431-.155-.908-.737-1.212m-1.906-.281h-1.428v-1.444h1.495c.956 0 .944 1.444-.067 1.444m.288 2.157h-1.716v-1.513h1.716c.986 0 1.083 1.513 0 1.513"/></svg>
